Numix-GalliumOS/64/mimetypes/wps-office-xlt.svg

<svg xmlns="http://www.w3.org/2000/svg" xmlns:xlink="http://www.w3.org/1999/xlink" width="64px" height="64px" viewBox="0 0 64 64" version="1.1">
<g id="surface1">
<path style=" stroke:none;fill-rule:nonzero;fill:rgb(12.54902%,44.313725%,27.058824%);fill-opacity:1;" d="M 10.6875 0 C 9.3125 0 8 1.378906 8 2.8125 L 8 61.1875 C 8 62.539062 9.390625 64 10.6875 64 L 53.3125 64 C 54.609375 64 56 62.539062 56 61.1875 L 56 2.75 C 56 1.402344 54.597656 0 53.25 0 Z M 10.6875 0 "/>
<path style=" stroke:none;fill-rule:nonzero;fill:rgb(100%,100%,100%);fill-opacity:1;" d="M 46 18 L 46 44 L 18 44 L 18 18 Z M 44 20 L 30 20 L 30 26 L 44 26 Z M 28 20 L 20 20 L 20 26 L 28 26 Z M 44 28 L 30 28 L 30 34 L 44 34 Z M 28 28 L 20 28 L 20 34 L 28 34 Z M 44 36 L 30 36 L 30 42 L 44 42 Z M 28 36 L 20 36 L 20 42 L 28 42 Z M 28 36 "/>
<path style=" stroke:none;fill-rule:nonzero;fill:rgb(0%,0%,0%);fill-opacity:0.196078;" d="M 8 48 L 8 61.335938 C 8 62.632812 9.375 64 10.664062 64 L 53.335938 64 C 54.625 64 56 62.632812 56 61.335938 L 56 48 Z M 8 48 "/>
<path style=" stroke:none;fill-rule:nonzero;fill:rgb(100%,100%,100%);fill-opacity:1;" d="M 24.601562 62 C 24.355469 61.386719 24.0625 60.703125 23.699219 59.957031 C 23.355469 59.210938 22.996094 58.457031 22.609375 57.710938 C 22.238281 58.425781 21.871094 59.164062 21.503906 59.941406 C 21.132812 60.695312 20.8125 61.386719 20.542969 62 L 18 62 C 18.132812 61.671875 18.3125 61.285156 18.558594 60.828125 C 18.8125 60.367188 19.082031 59.867188 19.378906 59.34375 C 19.691406 58.808594 20 58.269531 20.335938 57.710938 C 20.664062 57.144531 20.984375 56.601562 21.289062 56.085938 L 18.195312 50.804688 L 20.738281 50.804688 L 22.609375 54.378906 L 24.578125 50.804688 L 26.949219 50.804688 L 23.929688 56.027344 C 24.273438 56.546875 24.609375 57.09375 24.945312 57.660156 C 25.273438 58.226562 25.578125 58.777344 25.867188 59.328125 C 26.152344 59.851562 26.40625 60.351562 26.628906 60.828125 C 26.839844 61.285156 27.011719 61.671875 27.144531 62 L 24.601562 62 "/>
<path style=" stroke:none;fill-rule:nonzero;fill:rgb(100%,100%,100%);fill-opacity:1;" d="M 36.148438 62 L 28.710938 62 L 28.710938 50.804688 L 31.082031 50.804688 L 31.082031 60.15625 L 36.148438 60.15625 L 36.148438 62 "/>
<path style=" stroke:none;fill-rule:nonzero;fill:rgb(100%,100%,100%);fill-opacity:1;" d="M 46 50.804688 L 46 52.648438 L 42.882812 52.648438 L 42.882812 62 L 40.511719 62 L 40.511719 52.648438 L 37.386719 52.648438 L 37.386719 50.804688 L 46 50.804688 "/>
</g>
</svg>

<svg xmlns="http://www.w3.org/2000/svg" viewBox="0 0 64 64">
 <g>
  <path d="m 10.688 0 c -1.375 0 -2.688 1.379 -2.688 2.813 l 0 58.38 c 0 1.352 1.391 2.813 2.688 2.813 l 42.625 0 c 1.297 0 2.688 -1.461 2.688 -2.813 l 0 -58.44 c 0 -1.348 -1.402 -2.75 -2.75 -2.75 m -42.563 0" style="fill:#207045;fill-opacity:1;stroke:none;fill-rule:nonzero"/>
  <path d="m 46 18 l 0 26 l -28 0 l 0 -26 m 26 2 l -14 0 l 0 6 l 14 0 m -16 -6 l -8 0 l 0 6 l 8 0 m 16 2 l -14 0 l 0 6 l 14 0 m -16 -6 l -8 0 l 0 6 l 8 0 m 16 2 l -14 0 l 0 6 l 14 0 m -16 -6 l -8 0 l 0 6 l 8 0 m 0 -6" style="fill:#fff;fill-opacity:1;stroke:none;fill-rule:nonzero"/>
  <path d="m 8 48 l 0 13.336 c 0 1.297 1.375 2.664 2.664 2.664 l 42.672 0 c 1.289 0 2.664 -1.367 2.664 -2.664 l 0 -13.336 m -48 0" style="fill:#000;fill-opacity:0.196;stroke:none;fill-rule:nonzero"/>
  <path d="m 24.602 62 c -0.246 -0.613 -0.539 -1.297 -0.902 -2.043 c -0.344 -0.746 -0.703 -1.5 -1.09 -2.246 c -0.371 0.715 -0.738 1.453 -1.105 2.23 c -0.371 0.754 -0.691 1.445 -0.961 2.059 l -2.543 0 c 0.133 -0.328 0.313 -0.715 0.559 -1.172 c 0.254 -0.461 0.523 -0.961 0.82 -1.484 c 0.313 -0.535 0.621 -1.074 0.957 -1.633 c 0.328 -0.566 0.648 -1.109 0.953 -1.625 l -3.094 -5.281 l 2.543 0 l 1.871 3.574 l 1.969 -3.574 l 2.371 0 l -3.02 5.223 c 0.344 0.52 0.68 1.066 1.016 1.633 c 0.328 0.566 0.633 1.117 0.922 1.668 c 0.285 0.523 0.539 1.023 0.762 1.5 c 0.211 0.457 0.383 0.844 0.516 1.172 l -2.543 0" style="fill:#fff;fill-opacity:1;stroke:none;fill-rule:nonzero"/>
  <path d="m 36.15 62 l -7.438 0 l 0 -11.195 l 2.371 0 l 0 9.352 l 5.066 0 l 0 1.844" style="fill:#fff;fill-opacity:1;stroke:none;fill-rule:nonzero"/>
  <path d="m 46 50.805 l 0 1.844 l -3.117 0 l 0 9.352 l -2.371 0 l 0 -9.352 l -3.125 0 l 0 -1.844 l 8.613 0" style="fill:#fff;fill-opacity:1;stroke:none;fill-rule:nonzero"/>
 </g>
</svg>
